symbols/web/phone_iphone/materialsymbolssharp/phone_iphone_wght300gradN25_20px.svg

<svg xmlns="http://www.w3.org/2000/svg" height="20" width="20"><path d="M10.021 16.688q.291 0 .531-.23.24-.229.24-.541 0-.292-.24-.521-.24-.229-.531-.229-.292 0-.531.229-.24.229-.24.521 0 .312.24.541.239.23.531.23Zm-5.313 1.895V1.417h10.584v17.166Zm1.25-5.312h8.084V5.042H5.958Zm0 4.062h8.084v-2.812H5.958Zm0-13.541h8.084V2.667H5.958Zm0 0V2.667v1.125Zm0 13.541v-2.812 2.812Z"/></svg>

<svg xmlns="http://www.w3.org/2000/svg" height="20" width="20"><path d="M10.021 16.688Q10.312 16.688 10.552 16.458Q10.792 16.229 10.792 15.917Q10.792 15.625 10.552 15.396Q10.312 15.167 10.021 15.167Q9.729 15.167 9.49 15.396Q9.25 15.625 9.25 15.917Q9.25 16.229 9.49 16.458Q9.729 16.688 10.021 16.688ZM4.708 18.583V1.417H15.292V18.583ZM5.958 13.271H14.042V5.042H5.958ZM5.958 17.333H14.042V14.521H5.958ZM5.958 3.792H14.042V2.667H5.958ZM5.958 3.792V2.667V3.792ZM5.958 17.333V14.521V17.333Z"/></svg>
